images_breeze_svg/cmd/32/insertbreak.svg

<svg viewBox="0 0 32 32" xmlns="http://www.w3.org/2000/svg"><path d="m4 15v1h6v-1zm9 0v1h6v-1zm9 0v1h6v-1z" fill="#1d99f3"/><path d="m6 4v10h1 18 1v-10zm1 1h18v8h-18zm-1 12v1 10h9v-1h-8v-9h18v2h-7v5h4l4-4v-1-2-1h-1-18z" fill="#4d4d4d"/><path d="m17 26c-.552 0-1 .448-1 1s.448 1 1 1 1-.448 1-1-.448-1-1-1zm4 0c-.552 0-1 .448-1 1s.448 1 1 1 1-.448 1-1-.448-1-1-1zm4 0c-.552 0-1 .448-1 1s.448 1 1 1 1-.448 1-1-.448-1-1-1z" fill="#f47750"/></svg>

<?xml version="1.0" encoding="UTF-8" standalone="no"?>
<svg
   xmlns:dc="http://purl.org/dc/elements/1.1/"
   xmlns:cc="http://creativecommons.org/ns#"
   xmlns:rdf="http://www.w3.org/1999/02/22-rdf-syntax-ns#"
   xmlns:svg="http://www.w3.org/2000/svg"
   xmlns="http://www.w3.org/2000/svg"
   xmlns:sodipodi="http://sodipodi.sourceforge.net/DTD/sodipodi-0.dtd"
   xmlns:inkscape="http://www.inkscape.org/namespaces/inkscape"
   viewBox="0 0 32 32"
   version="1.1"
   id="svg6"
   sodipodi:docname="insertbreak.svg"
   inkscape:version="0.92.4 (unknown)"
   inkscape:export-filename="/home/rizmut/Dokumen/Rizmut/Github/libreoffice-style-breeze/images_breeze/cmd/32/insertbreak.png"
   inkscape:export-xdpi="96"
   inkscape:export-ydpi="96">
  <metadata
     id="metadata12">
    <rdf:RDF>
      <cc:Work
         rdf:about="">
        <dc:format>image/svg+xml</dc:format>
        <dc:type
           rdf:resource="http://purl.org/dc/dcmitype/StillImage" />
        <dc:title></dc:title>
      </cc:Work>
    </rdf:RDF>
  </metadata>
  <defs
     id="defs10" />
  <sodipodi:namedview
     pagecolor="#ffffff"
     bordercolor="#666666"
     borderopacity="1"
     objecttolerance="10"
     gridtolerance="10"
     guidetolerance="10"
     inkscape:pageopacity="0"
     inkscape:pageshadow="2"
     inkscape:window-width="1360"
     inkscape:window-height="714"
     id="namedview8"
     showgrid="true"
     inkscape:zoom="14.75"
     inkscape:cx="11.364524"
     inkscape:cy="12.650209"
     inkscape:window-x="0"
     inkscape:window-y="28"
     inkscape:window-maximized="1"
     inkscape:current-layer="svg6">
    <inkscape:grid
       type="xygrid"
       id="grid822" />
  </sodipodi:namedview>
  <path
     d="m4 15v1h6v-1zm9 0v1h6v-1zm9 0v1h6v-1z"
     fill="#1d99f3"
     id="path2" />
  <path
     d="M 6 4 L 6 14 L 7 14 L 25 14 L 26 14 L 26 4 L 6 4 z M 7 5 L 25 5 L 25 13 L 7 13 L 7 5 z M 6 17 L 6 18 L 6 28 L 15 28 L 15 27 L 7 27 L 7 18 L 25 18 L 25 20 L 18 20 L 18 25 L 22 25 L 26 21 L 26 20 L 26 18 L 26 17 L 25 17 L 7 17 L 6 17 z "
     id="path4"
     style="fill:#4d4d4d;fill-opacity:1;stroke:none" />
  <path
     inkscape:connector-curvature="0"
     style="fill:#f47750"
     d="m 17,26 c -0.552,0 -1,0.448 -1,1 0,0.552 0.448,1 1,1 0.552,0 1,-0.448 1,-1 0,-0.552 -0.448,-1 -1,-1 z m 4,0 c -0.552,0 -1,0.448 -1,1 0,0.552 0.448,1 1,1 0.552,0 1,-0.448 1,-1 0,-0.552 -0.448,-1 -1,-1 z m 4,0 c -0.552,0 -1,0.448 -1,1 0,0.552 0.448,1 1,1 0.552,0 1,-0.448 1,-1 0,-0.552 -0.448,-1 -1,-1 z"
     id="path2-3" />
</svg>
